X:235
T:Staggins's Jig. (p)1679.PLFD.235
M:6/4
L:1/4
Q:3/4=90
S:Playford, Dancing Master,6th Ed.,1679
O:England
H:1679.
Z:Chris Partington.
K:F
(a<f)a(g<e)g|f>ef^c2d|e3A3|(a<f)a(g<e)g|
f>ed^c>Bc|1d3D3:|2d3D2||:E|F>GAGEC|
F>GAGAB|c3E3|F>GAB>cd|
c>BAf>e^c|1d3D2:|2d3D3|]
